components/Common/Svg/svgs/support.svg

<svg
  width="40"
  height="40"
  viewBox="0 0 40 40"
  fill="none"
  xmlns="http://www.w3.org/2000/svg"
>
  <path
    d="M37.6121 19.0289L33.75 20.96L28.75 11.3847L32.6515 9.43397C32.9446 9.28741 33.2835 9.26182 33.5953 9.36272C33.9071 9.46362 34.1668 9.68292 34.3185 9.97342L38.1611 17.3323C38.238 17.4795 38.2847 17.6404 38.2987 17.8059C38.3126 17.9713 38.2935 18.1378 38.2424 18.2958C38.1913 18.4537 38.1092 18.5999 38.001 18.7258C37.8928 18.8516 37.7606 18.9547 37.6121 19.0289V19.0289Z"
    stroke="#161616"
    stroke-width="2"
    stroke-linecap="round"
    stroke-linejoin="round"
  ></path>
  <path
    d="M6.25233 20.7925L2.3902 18.8615C2.24173 18.7872 2.10952 18.6842 2.00131 18.5583C1.8931 18.4324 1.81104 18.2862 1.75994 18.1283C1.70883 17.9703 1.68969 17.8038 1.70364 17.6384C1.71759 17.473 1.76435 17.312 1.84119 17.1648L5.68383 9.80594C5.83552 9.51545 6.09522 9.29614 6.40702 9.19524C6.71881 9.09434 7.05776 9.11993 7.35088 9.26649L11.2523 11.2172L6.25233 20.7925Z"
    stroke="#161616"
    stroke-width="2"
    stroke-linecap="round"
    stroke-linejoin="round"
  ></path>
  <path
    d="M33.75 20.9599L31.25 23.8846L25.5004 29.6342C25.3478 29.7868 25.1583 29.8973 24.9502 29.9549C24.7422 30.0126 24.5228 30.0153 24.3134 29.963L15.2576 27.699C15.0878 27.6566 14.9287 27.5789 14.7908 27.4711L6.25 20.7925"
    stroke="#161616"
    stroke-width="2"
    stroke-linecap="round"
    stroke-linejoin="round"
  ></path>
  <path
    d="M31.2493 23.8845L24.3743 18.8845L22.3743 20.3845C21.5089 21.0336 20.4562 21.3845 19.3743 21.3845C18.2925 21.3845 17.2398 21.0336 16.3743 20.3845L15.5273 19.7493C15.3841 19.6418 15.2656 19.5048 15.1798 19.3476C15.0941 19.1904 15.0432 19.0165 15.0305 18.8379C15.0178 18.6593 15.0436 18.48 15.1063 18.3122C15.1689 18.1444 15.2668 17.992 15.3935 17.8654L21.5082 11.7506C21.6243 11.6346 21.7621 11.5425 21.9137 11.4797C22.0654 11.4169 22.2279 11.3845 22.3921 11.3845H28.7493"
    stroke="#161616"
    stroke-width="2"
    stroke-linecap="round"
    stroke-linejoin="round"
  ></path>
  <path
    d="M11.3398 11.217L19.3586 8.8793C19.645 8.79579 19.9519 8.8175 20.2238 8.9405L25.6251 11.3845"
    stroke="#161616"
    stroke-width="2"
    stroke-linecap="round"
    stroke-linejoin="round"
  ></path>
  <path
    d="M17.5 33.2596L12.7907 32.0823C12.5996 32.0345 12.4225 31.9423 12.2738 31.813L8.75 28.75"
    stroke="#161616"
    stroke-width="2"
    stroke-linecap="round"
    stroke-linejoin="round"
  ></path>
</svg>

<svg width="40" height="40" viewBox="0 0 40 40" fill="none" xmlns="http://www.w3.org/2000/svg"><path d="M37.612 19.029 33.75 20.96l-5-9.575 3.901-1.951a1.25 1.25 0 0 1 1.667.54l3.843 7.358a1.25 1.25 0 0 1-.549 1.697v0ZM6.252 20.793 2.39 18.861a1.25 1.25 0 0 1-.549-1.697l3.843-7.36a1.25 1.25 0 0 1 1.667-.539l3.901 1.951-5 9.575ZM33.75 20.96l-2.5 2.925-5.75 5.75a1.25 1.25 0 0 1-1.187.328l-9.055-2.264a1.25 1.25 0 0 1-.467-.228L6.25 20.793" stroke="#161616" stroke-width="2" stroke-linecap="round" stroke-linejoin="round"/><path d="m31.25 23.884-6.876-5-2 1.5a5 5 0 0 1-6 0l-.847-.635a1.253 1.253 0 0 1-.42-1.437c.062-.168.16-.32.287-.447l6.114-6.114a1.251 1.251 0 0 1 .884-.367h6.357" stroke="#161616" stroke-width="2" stroke-linecap="round" stroke-linejoin="round"/><path d="m11.34 11.217 8.019-2.338a1.25 1.25 0 0 1 .865.062l5.401 2.443M17.5 33.26l-4.71-1.178a1.25 1.25 0 0 1-.516-.269L8.75 28.75" stroke="#161616" stroke-width="2" stroke-linecap="round" stroke-linejoin="round"/></svg>
